X:1
T:Tarantella
T:Tarantella
T:Algernon Ashton, op. 107
C:Algernon Ashton, op. 107
%%score 1 { ( 2 4 ) | ( 3 5 ) }
L:1/8
Q:3/4=84
M:6/8
K:Bb
V:1 treble transpose=-2 nm="B Klarinette"
V:2 treble nm="Klavier"
V:4 treble 
V:3 bass 
V:5 bass 
V:1
[K:C]"^Allegro assai." z6 | z6 | z6 | z6 | z6 | z6 | z6 | z6 | z6 | z6 | z6 | z6 | z6 | z6 | z6 | %15
 z6 |!p!"^A"!>(! (gag fdf!>)! | .e) z!<(! (G cde | .d) z (G def | eGc def!<)! |!>(! gba gfd | %21
 .c)!>)! z!<(! (G cde!<)! |!>(! .d)(d^F cdc!>)! |!<(! BGB def!<)! |!p!!>(! gag fdf | %25
 .e)!>)! z!<(! (G cde | .d)(dG def | .e)(eG efg)!<)! | (ad'c'!>(! bad | cad cBA)!>)! | %30
!mf!!<(! (ded gab!<)! |!>(! c'ag edc)!>)! |"^B" z6 | z6 |!f!!<(! (DEF GAB | ^cde fg!<)!a | %36
!ff! .e) z z4 | z6 |!ff!!<(! (E^F^G AB^c | ^de^f ^gab!<)! |!mf!"^C" .B) z z4 | z6 | %42
!mf!!<(! (B3 ^d3 | ^F3 B2 ^d!<)! |!p! .d) z z4 | z2!p!!<(! (d fga)!<)! |!<(! (a3 c'3 | %47
 .e) z (e abc'!<)! |!f!"^D" .e') z z4 | z6 | z6 | z6 | z6 | z6 | z6 | z6 |!p!"^E"!<(! (G3 A2 B | %57
 .c) z (d efg | .G)!<)! z!<(! (A Bcd | cde fga)!<)! |!>(! (d2 c Bgf | eag edc)!>)! | %62
 (d3 e2!<(! ^f | .g) z (^a bc'd'!<)! |!ff!"^F" .c) z z4 | z6 | z6 | z6 | z6 | !>!G3 !>!c3 | %70
!<(! (EG_B ce^f | ge^f ga^a!<)! |!ff! .b) z z4 | z6 | !>!G6- | G3 .G z2 | !>!B,3 B,2 (B, | %77
 .^F) z z .B z2 | z6 | z2 z z2!p!!<(! (B, |"^G" E^FG EF!<)!G |!>(! .^F) z .E .E!>)! z!<(! (B, | %82
 E^FG EFG!<)! |!>(! .^F)(FE) .E!>)! z .B, |!<(! (B,^C^D B,CD | B,^C^D B,CD | ^C^DE CDE) | %87
 ^D^F^A Bc^d!<)! |!p!!<(! (e^f^g efg!<)! |!>(! ^f) z .e .e!>)! z!<(! (B | e^f^g efg!<)! | %91
!>(! .^f)(fe) .e!>)! z (e | .^c').c'.c'!>(! (c'ba | ^g^fe .^d)!>)! z!<(! .d | (^de^f ef^g!<)! | %95
!>(! .^f) z .e .e z (^G!>)! |!pp! .^C) z z4 | .^C z z4 | z6 | .^c z z4 | .^F z z .F z2 | %101
 z2 z .^F z2 | z2 z!<(! .E z z!<)! |!>(! .^G z z .^C!>)! z!<(! (^d | ^g^a^b gab!<)! | %105
!>(! .^a) z .^g .g!>)! z!mf!!<(! (^d | gbd' gbd'!<)! |!>(! .a)(ag) .g!>)! z!p!!<(! (G | %108
 cd_e cde!<)! |!>(! .d) z .c .c!>)! z!mf!!<(! (G | Bdg Bdg!<)! |!>(! .e)(ed) .d!>)! z2 |"^H" z6 | %113
 z6 | z6 | z6 |!p!!<(! !>!A6 | !>!e6!<)! |!>(! a6- | a6- | a!>)! z!p!!<(! (A de^f!<)! | %121
!>(! .e) z .d d3- | d2!>)!!<(! (A de^f!<)! |!>(! .e)(ed) !>!d3- | d2!>)!!<(! (A d^fa!<)! | %125
!>(! .e) z .d (!>!d3 | d2)!>)!!<(! (A d^fc'!<)! |!>(! .e)(ed) (!>!d3 |"^I" d)!>)! z z4 | z6 | z6 | %131
 z2 z!p! .G z z |!<(! !>!d6 | !>!a3- a2!<)! a |!>(! !>!d'6- | d'3 (d3 | %136
!p! .G)!>)! z!<(! (d gab!<)! |!>(! .a) z .g g3- | g2!>)!!<(! (d gab!<)! |!>(! .a)(ag) g3- | %140
 g2!>)!!<(! (D GBd!<)! |!>(! .A) z .G !>!G3- | G2!>)!!<(! (D GBg!<)! |!>(! .A)(AG) !>!G3- | %144
 G3!>)!!p!!>(! !>!G3- | G3 !>!G3- | G6!>)! |!pp!!>(! !>!D3- D2 .D | .D!>)! z z4 |!ff! .G z z4 | %150
!<(! (CD_E FGA | Bcd _efg!<)! |!mf!"^J" .c) z z4 | z6 | z6 | z6 | z6 | z6 | z6 | z6 | z6 | z6 | %162
 z6 | z6 | z6 | z6 | z6 | z6 |"^K"!p! (g!>(!_ag fdf | ._e)!>)! z!<(! (G cde | .d) z (G d_ef | %171
 _eGc def!<)! | g!>(!b_a gfd | .c)!>)! z!<(! (G cd_e!<)! |!>(! .d)(d^F cdc!>)! | %175
!<(! BGB d_e^f!<)! |!p!!>(! g_ag fdf | ._e)!>)! z!<(! (G cde | .d)(dG d_ef | ._e)(eG efg)!<)! | %180
 (ad'c'!>(! bad | cad cBA)!>)! |!mf!!<(! (d_ed gab!<)! | c'!>(!_ag _edc)!>)! |"^L" z6 | z6 | %186
!f!!<(! (GA_B cde | ^fga _bc'd'!<)! |!ff! .a) z z4 | z6 |!ff!!<(! (AB^c de^f | ^gab ^c'd'e'!<)! | %192
!mf!"^M" .e) z z4 | z6 |!mf!!<(! (e3 ^g3 | B3 e2 ^g!<)! |!p! .g) z z4 | z2!p!!<(! (g _bc'd')!<)! | %198
!<(! (d3 f3 | .A) z (A def!<)! |"^N" .a) z z4 | z6 | z6 | z6 | z6 | z6 | z6 | z6 | %208
!p!"^O"!<(! (c3 d2 e | .f) z (g a_bc' | .c)!<)! z!<(! (d efg | fga _bc'd')!<)! |!>(! (g2 f ec'_b | %213
 ad'c' agf)!>)! |!<(! (g3 a2 b | c'c^d efg!<)! |!ff!"^P" .F) z z4 | z6 | !>!f6- | f6 | F6 | %221
 !>!c3 !>!f3 |!<(! (Ac_e fab | c'ab c'd'^d'!<)! |!ff! .e') z z4 | z6 | c6- | c3 .c z2 | %228
 !>!E3 E2 (E | .B) z z .e z2 | z6 | z2 z z2!p!!<(! (E |"^Q" ABc AB!<)!c | %233
!>(! .B) z .A .A!>)! z!<(! (E | ABc ABc!<)! |!>(! .B)(BA) .A!>)! z .E |!<(! (E^F^G EFG | %237
 E^F^G EFG | ^F^GA FGA) | (^GB^d e^f^g)!<)! |!p!!<(! (ab^c' abc'!<)! | %241
!>(! b) z .a .a!>)! z!<(! (e | ab^c' abc'!<)! |!>(! .b)(ba) .a!>)! z (a | .^f').f'.f'!>(! (f'e'd' | %245
 ^c'ba .^g)!>)! z!<(! .g | (^gab ab^c'!<)! |!>(! .b) z .a .a z (^c!>)! |!pp! .^F) z z4 | .^F z z4 | %250
 z6 | .^f z z4 |!<(! .B z z .B z2 | z2 z .B!<)! z2 | z2 z!<(! .A z z!<)! | %255
!>(! .^c z z .^F!>)! z!p!!<(! (^G | ^c^de cde!<)! |!>(! .^d) z .^c .c!>)! z!mf!!<(! (^G | %258
 ceg ceg!<)! |!>(! .d)(dc) .c!>)! z!p!!<(! (c | fg_a fga!<)! |!>(! .g) z .f .f!>)! z!mf!!<(! (c | %262
 egc' egc'!<)! |!>(! .a)(ag) .g!>)! z2 |"^R" z6 | z6 | z6 | z6 |!p!!<(! !>!d6 | !>!a6!<)! | %270
!>(! d'6- | d'6- | d'!>)! z!p!!<(! (d gab!<)! |!>(! .a) z .g g3- | g2!>)!!<(! (d gab!<)! | %275
!>(! .a)(ag) g3-!>)! | g2!<(! (d gbd'!<)! |!>(! .a) z .g (g3 | g2)!>)!!<(! (d gbf'!<)! | %279
!>(! .a)(ag) g3- |"^S" g2!>)! z z z2 | z6 | z2 z!p!!<(! .c z z | !>!g6 | !>!d'3- d'2!<)! .d' | %285
!>(! !>!g6- | g3 (g3!>)! |!p! .c) z!<(! (g c'd'e'!<)! |!>(! .d') z .c' !>!c'3- | %289
 c'2!>)!!<(! (g c'd'e'!<)! | .d')!>(!(d'c') !>!c'3- | c'2!>)!!<(! (G ceg!<)! | %292
!>(! .d) z .c !>!c3- | c2!>)!!<(! (G cec'!<)! |!>(! .d)(dc) !>!c3- | c3!>)!!p!!>(! !>!c3- | %296
 c3 !>!c3- | c6!>)! |!pp!!>(! !>!G3- G2 .G | .G!>)! z z4 |!ff! .C z z4 |!<(! (FG_A _Bcd | %302
 efg _a_bc'!<)! |"^T"!ff! .c) z z4 | z6 | z6 | z6 | z6 | z6 | z6 |!p!!<(! G6- | G6- | G6-!<)! | %313
!>(! G6- | G6!>)! | G!<(!(EF GBc | dGe fgb!<)! |!p! .c') z z z2 !fermata!z |] %318
V:2
 (B,3 D3 |!<(! F,3 B,2 D | CDC .B,) z (D | .G) z (F .B) z (c | d2!<)!!>(! c B2 d | cdc BGB | %6
 .A)(AG F2 G | FGF EA,E)!>)! | [B,DB]3 (d3 | .F) z!<(! (F B2 d | cdc .B) z (d | g=ef bd'=e'!<)! | %12
!f! .f') z z4 |!>(! .[DB] z z4 | .[DB] z z4 |[K:bass] .[D,B,] z z4!>)! |!pp!!<(! .[F,A,C] z z4 | %17
 .[F,B,D] z z4!<)! |!>(! .[F,CE] z z4 | .[F,B,D] z z4!>)! |!<(! .[F,CE] z z4 | .[F,B,D] z z4!<)! | %22
!>(! .[=E,B,C] z z4 | .[F,A,C] z z4!>)! | z2 z .[F,A,C] z2 | z2 z .[F,B,D] z2 | %26
!>(! z2 z .[F,CE] z2 | z2 z .[F,B,D] z2!>)! | z2 z!<(! .[G,B,C] z2 | %29
 z2 z[K:treble] .[B,CG] z2!<)! | z2!<(! z .[CEA] z2 | z2 z .[B,DB] z2!<)! | %32
!f!!<(! .f z (c fga)!<)! | z6 |[K:bass] (E,G,C DEF |[K:treble] GA=B cde) |!ff!!<(! .g(gd gab)!<)! | %37
 z6 |!<(! (de^f ga=b |!8va(! ^c'd'=e' ^f'a'd'')!<)! |!mf!!<(! ^f'd''f' d''f'd'' | %41
 ^f'd''f' d''f'd''!<)! |!>(! =e'^c''e' c''e'c'' | =e'=b'e' a'e'a'!>)! |!p!!<(! e'c''e' c''e'c'' | %45
 e'c''e' c''e'!<)!c'' |!>(! d'b'd' b'd'b' | d'a'd' g'd'g'!8va)!!>)! |!p!!<(! (Ade =ef^f | %49
 g^ga b=bc' | ^c'd'e' =e'f'!<)!^f' |!>(! g'_a'g' f'd'f')!>)! |!<(! (Gcd efg | abc' d'e'f' | %54
!8va(! g'a'b' c''d''e''!<)! |!>(! f''g''f'' e''c''e'')!8va)!!>)! |!p!!>(! (f'g'f' e'c'e'!>)! | %57
 .d') z!<(! (f bc'd' | .c')(c'f c'd'e' | d'fb c'd'e'!<)! |!>(! f'a'g' f'e'c'!>)! | %61
 .b) z!<(! (f bc'd' | .c')(c'=e bc'b | af=b c'd'e'!<)! |!ff! .[fbd']) z z!<(! (d3 | F3 B2 d | %66
 !>!cdc .B) z (e | .g) z (a .b) z (c'!<)! |!>(! !>!d'2 c' b2 f | efe dBd)!>)! | %70
!<(! z2 z [DF^G] z2 | z2 z .[^Gd^g] z2!<)! |!ff! .[A^ca] z z!<(! (c3 | .=E) z (E A2 ^c | %74
 !>!BcB .A) z (d | .f) z (^g .a) z (=b!<)! |!>(! !>!^c'2 b a2 e | d=ed ^cAc)!>)! | %78
!f!!>(! (=ege d^cB | AGF =ED^C!>)! |[K:bass]!pp!!<(! .[A,D]) z z .[B,D] z2!<)! | %81
!>(! .[G,B,^C] z z .[A,D]!>)! z2 |!<(! .[A,D] z z .[B,D] z2!<)! |!>(! .[G,B,^C] z z .[A,D]!>)! z2 | %84
!<(! .[E,A,] z z .[E,A,] z2 | .[F,A,] z z .[D,A,] z2 | .[=E,A,] z z .[E,^G,] z2 | %87
 .[=E,A,^C] z z z2 ([G,A,]!<)! |!p! .[^F,D]) z z4 |!pp! .D, z z4 | z6 |[K:treble] .D z z4 | %92
 .[G,G] z z .G z z | z2 z .[A,A] z2 | z2 z!<(! .[A,A] z2!<)! | %95
!>(! .[G^c] z z .[^Fd]!>)! z!p!!<(! (^f | =b^c'd' bc'd'!<)! |!>(! .^c') z .=b .b!>)! z!p!!<(! (^f | %98
 =b^c'd' bc'!<)!d' |!>(! .^c')(c'=b) .b!>)! z (b | .g').g'.g'!>(! (g'^f'=e' | %101
 d'^c'=b .^a)!>)! z!<(! .a | (^a=b^c' bc'd'!<)! |!>(! .^c') z .=b .b!>)! z z | %104
[K:bass]!p!!<(! (^F,^A,F, A,F,A,!<)! |!>(! ^F,^A,F, A,F,A,)!>)! |!mf!!<(! (F,CF, CF,C!<)! | %107
 F,!>(!CF, CF,C)!>)! |!p!!<(! (B,_DB, DB,D!<)! |!>(! B,_DB, DB,D)!>)! |!mf!!<(! (A,FA, FA,F!<)! | %111
!>(! A,FA, FA,F)!>)! |[K:treble]!p!!8va(! =e'c''e' c''e'c'' |!<(! =e'c''e' c''e'c'' | %114
 =e'c''e' c''e'c'' | =e'c''e' c''e'c''!<)! |!mf!!>(! (d'=b'd' b'd'b')!>)! | %117
!>(! (c'a'c' a'c'a')!>)! |!>(! (=bg'b g'bg' | c'f'c' d'gd'!>)! |!p! .[c'=e'])!8va)! z z4 | %121
 z2 z z2!>(! ([G=B] | [FA]2 .[=EG])!>)! z z2 | z2 z z2!>(! ([G=B] | [FA]2 .[=EG])!>)! z z2 | %125
 z2 z z2!>(! ([G=B] | [FA]2 .[=EG])!>)! z z2 | z2 z z2!f! ([C-GB] | %128
 .[CFA])!p!!8va(! f''a' f''a'f'' |!<(! a'f''a' f''a'f'' | a'f''a' f''a'f'' | a'f''a' f''a'f''!<)! | %132
!mf!!>(! (g'=e''g' e''g'e'')!>)! |!>(! (f'd''f' d''f'd'')!>)! |!>(! (=e'c''e' c''e'c'' | %135
 f'b'f' g'c'g'!>)! |!p! .[f'a']) z z4 | z!8va)! z z z2!>(! ([c=e] | [Bd]2 .[Ac])!>)! z z2 | %139
 z2 z z2!>(! ([c=e] | [Bd]2 .[Ac])!>)! z z2 | z2 z z2!>(! ([CE] | [B,D]2 .[A,C])!>)! z z2 | %143
 z2 z z2!>(! ([C=E] | [B,D]2 .[A,C])!>)! z2!>(! ([CE] | [B,D]2 .[A,C])!>)! z2 ([C=E] | %146
 [B,D]2 [A,C] [B,D]2 .[A,C]) |[K:bass]!pp! ([F,B,]2 [C,F,] [F,B,]2 [C,G,] | .[F,A,]) z z4 | %149
[K:treble]!ff! .[fc'e'f'] z z4 |!8va(! !>![_d'f'b'_d'']6- | [d'f'b'd'']6!8va)! | (B,3 _D3 | %153
!<(! F,3 B,2 _D | C_DC .B,) z (D | ._G) z (F .B) z (c | _d2!<)!!>(! c B2 d | c_dc BGB | %158
 .A)(A_G F2 G | F_GF EA,E)!>)! | [B,_DB]3 (_d3 | .F) z!<(! (F B2 _d | c_dc .B) z (d | %163
 _g=ef b_d'e'!<)! |!f! .f') z z4 |!p!!>(! .[_DB] z z4 | .[_DB] z z4 |[K:bass] .[_D,B,] z!>)! z4 | %168
!pp!!<(! .[F,A,C] z z4 | .[F,B,_D] z z4!<)! |!>(! .[F,CE] z z4 | .[F,B,_D] z z4!>)! | %172
!<(! .[F,CE] z z4 | .[F,B,_D] z z4!<)! |!>(! .[=E,B,C] z z4 | .[F,A,C] z z4!>)! | %176
!pp!!<(! z2 z .[F,A,C] z2 | z2 z .[F,B,_D]!<)! z2 |!>(! z2 z .[F,CE] z2 | z2 z .[F,B,_D]!>)! z2 | %180
!<(! z2 z .[G,B,C] z2 | z2 z[K:treble] .[B,CG] z2!<)! |!mf!!<(! z2 z .[CEA] z2 | %183
 z2 z .[B,_DB]!<)! z2 |!f!!<(! .b z (f bc'_d')!<)! | z6 |!<(! (_A,CF G_AB | cd=e fg_a)!<)! | %188
!ff!!<(! .c'(c'g c'd'e')!<)! | z6 |!<(! (ga=b c'd'=e' |!8va(! ^f'g'a' =b'd''g'')!<)! | %192
!mf!!<(! =b'g''b' g''b'g'' | =b'g''b' g''b'!<)!g'' |!>(! a'^f''a' f''a'f'' | %195
 a'=e''a' d''a'd''!>)! |!p!!<(! _a'f''a' f''a'f'' | _a'f''a' f''a'!<)!f'' |!>(! g'e''g' e''g'e'' | %199
 g'd''g' c''g'c''!8va)!!>)! |!p! dg_a =ab=b | c'^c'd' e'=e'f' |!8va(! ^f'g'_a' =a'b'=b' | %203
!>(! c''_d''c'' b'g'b'!8va)!!>)! |!<(! (cfg _abc' |!8va(! d'e'f' g'_a'b' | %206
 c''d''e'' f''g''_a''!<)! |!>(!!>(! b'c''b' _a'f'a')!8va)!!>)!!>)! |!p! (bc'b _afa | %209
 .g) z!<(! (B efg | .f)(fB fg_a | gBe fg_a!<)! |!>(! bd'c' b_af!>)! | .e) z!<(! (B efg | %214
 .f)(fA efe | dB_f =fg_a!<)! |!ff! .[Beg]) z z (g3 | B3 e2 g | !>!fgf .e) z (_a | %219
 .c') z (d' .e') z (f' | !>!g'2 f' e'2 b | _aba geg) |!<(! z2 z [GB^c] z2 | z2 z [^cg^c'] z2!<)! | %224
!ff! [d^fd'] z z!<(! (f3 | .A) z (A d2 ^f | efe .d) z (g | .b) z (^c' .d') z (=e'!<)! | %228
 ^f'2 e' d'2 a | gag ^fdf) | (ac'a g^fe | dcB AG^F |!pp!!<(! .[DG]) z z .[EG] z2!<)! | %233
!>(! .[CE^F] z z .[DG]!>)! z2 |!<(! .[DG] z z .[EG] z2!<)! |!>(! .[CE^F] z z .[DG]!>)! z2 | %236
!<(! .[^G,D] z z .[G,D] z2 | .[B,D] z z .[G,D] z2 | .[A,D] z z .[A,^C] z2 | %239
 .[A,D^F] z z z2 ([CD]!<)! |!p! .[=B,G]) z z4 | .G, z z4 | z6 |[K:treble] .G z z4 | %244
 .[Cc] z z .c z z | z2 z .[Dd] z2 | z2 z!<(! .[Dd] z2!<)! | %247
!>(! .[c^f] z z .[=Bg]!>)! z!p!!8va(! (=b | =e'^f'g' e'f'g' | .^f') z .=e' .e' z!p!!<(! (=b | %250
 =e'^f'g' e'f'!<)!g' |!>(! .^f')(f'=e') .e'!>)! z (e' | .c'').c''.c''!>(! (c''=b'a' | %253
 g'^f'=e' .^d')!>)! z!<(! .d' | (^d'=e'^f' e'f'g'!<)! |!>(! .^f') z .=e' .e'!8va)!!>)! z z | %256
!<(! =B,^DB, DB,D!<)! |!p!!>(! =B,^DB, DB,D!>)! |!mf!!<(! (B,FB, FB,F!<)! | B,!>(!FB, FB,F)!>)! | %260
!p!!<(! (E_GE GEG!<)! |!>(! E_GE GEG)!>)! |!mf!!<(! (DBD BDB!<)! |!>(! DBD BDB)!>)! | %264
[K:treble]!p!!8va(! a'f''a' f''a'f'' |!<(! a'f''a' f''a'f'' | a'f''a' f''a'f'' | %267
 a'f''a' f''a'f''!<)! |!mf!!>(! (g'=e''g' e''g'e'')!>)! |!>(! (f'd''f' d''f'd'')!>)! | %270
!>(! (=e'c''e' c''e'c'' | f'b'f' g'c'g'!>)! |!p! .[f'a'])!8va)! z z4 | z2 z z2!>(! ([c=e] | %274
 [Bd]2 .[Ac])!>)! z z2 | z2 z z2!>(! ([c=e] | [Bd]2 .[Ac])!>)! z z2 | z2 z z2!>(! ([c=e] | %278
 [Bd]2 .[Ac])!>)! z z2 | z2 z z2!f! ([Fce] | .[FBd])!p!!8va(!b'd' b'd'b' |!<(! d'b'd' b'd'b' | %282
 d'b'd' b'd'b' | d'b'd' b'd'b'!<)! |!mf!!>(! (c'a'c' a'c'a')!>)! |!>(! (bg'b g'bg')!>)! | %286
 af'a f'af' | be'b c'fc' |!p! .[bd']!8va)! z z z2!>(! ([fa] | [eg]2 .[df])!>)! z z2 | %290
 z2 z z2!>(! ([fa] | [eg]2 .[df])!>)! z z2 | z2 z z2!>(! ([F_A] | [EG]2 .[DF])!>)! z z2 | %294
 z2 z z2!>(! ([FA] | [EG]2 .[DF])!>)! z2!>(! ([F_A] | [EG]2 .[DF])!>)! z2 ([FA] | %297
 [EG]2 [DF] [EG]2 .[DF]) |!pp! ([B,E]2 [F,B,] [B,E]2 [F,C] | .[B,D]) z z4 |!ff! .[Bf_ab] z z4 | %301
 !>![_gbe'_g']6- | [gbe'g']6 |!ff! .[fbd'f'] z2!f! (d3 |!<(! F3 B2 d | cdc .B) z (d | %306
 .g) z (f .b) z (c'!<)! |!mf! d'2!>(! c' b2 d' | c'd'c' bgb | .a)((ag f2 g | fgf eAe)!>)! | %311
!p! [Bdb]3) (d'3 | .f) z!<(! (f b2 d' | c'd'c' .b) z!8va(! (d' | g'=e'f' b'd''=e''!<)! | %315
!mf! .f'')!8va)! z z z2 z |!pp! .[A,CEF] z z4 |!pp! .[B,DB] z z z2 !fermata!z |] %318
V:3
!p! ([B,,,B,,]3 D,3 | F,,3 B,,2 D, | C,D,C, .B,,) z (D, | .G,) z (F, .B,) z (C | D2 A, G,2 B, | %5
 A,B,A, G,=E,G, | F,3- F,2 E, | .D,) z (D, C,3) |!mf! [B,,,F,,B,,]3 (D3 | .F,) z (F, B,2 D | %10
 CDC .B,) z[K:treble] (D | G=EF Bd=e | .f) z z[K:bass]!p! .[B,,F,] z2 | z2 z .[B,,,F,,] z2 | %14
 z2 z .[B,,,F,,]!>(! z2!>)! | z2 z .[B,,,F,,] z2 |!<(! z2 z .[B,,,F,,] z2!<)! | %17
 z2 z .[B,,,F,,] z2 | z2 z .[A,,,F,,] z2 | z2 z .[B,,,F,,] z2 | z2 z .[A,,,F,,] z2 | %21
 z2 z .[B,,,F,,] z2 | z2 z .[G,,,C,,G,,] z2 | z2 z .[F,,,C,,F,,] z2 |!pp!!<(! .[B,,,F,,] z z4 | %25
 .[B,,,F,,] z z4!<)! | .[A,,,F,,] z z4 | .[B,,,F,,] z z4 | .[=E,,,=E,,] z z4 | z2 z .[=E,,=E,] z2 | %30
!mf! .[F,,,F,,] z2 .[F,,F,] z2 | z2 z .[B,,,B,,] z2 | !arpeggio!.[F,,C,A,] z z4 | %33
[K:treble]!<(! .F z (C FGA)!<)! |[K:bass] [C,,C,] z z4 | z6 | %36
!ff!!ff!!ff! !arpeggio!.[G,,D,B,] z z4 |[K:treble]!<(!!<(! .G(GD GAB)!<)!!<)! | %38
[K:bass] ([D,^F,]A,D[K:treble] E^FG | A=B^c d=e^f) | (D3 ^F3 | A,3 D2 ^F | %42
 A=EA,[K:bass] A,=E,A,,) |[K:treble] ((!>![A,D^G]3 .[A,^CA])) z2 | (C3 E3 | .G,) z (G, C2 E | %46
 GDG,)[K:bass] (G,D,G,,) |[K:treble] (([G,C^F]3 .[G,B,G])) z2 | (D3 [Ac]3 | [GB]3 [FA]3 | %50
 [EG]3 .[DF]) z ([CE] | [=B,D]6) | (C3 [GB]3 | [FA]3 [EG]3 | [DF]3 .[CE]) z ([B,D] | [A,C]6) | %56
[K:bass] .[A,CEF] z z .[B,,F,] z z | .[B,DF] z z .[B,,F,] z z | .[A,CEF] z z .[B,,F,] z z | %59
 .[B,DF] z z .[B,,F,] z z | .[A,CEF] z z .[B,,F,] z z | .[B,DF] z z .[B,,F,] z z | %62
 .[G,B,C=E] z z .[G,,C,G,] z z | [F,A,CF] z z .[F,,F,] z .[F,,F,] | .[B,,,B,,] z z (D3 | %65
 F,3 B,2 D | !>!CDC .B,) z[K:treble] (E | .G) z (A .B) z (c | !>!d2 c B2 F | EFE DB,D) | %70
[K:bass] .[B,,,B,,] z z .[B,,B,] z2 | z2 z .[B,,,B,,] z2 | .[A,,,A,,] z z (^C3 | %73
 .=E,) z (E, A,2 ^C | !>!B,CB, .A,) z (D |[K:treble] .F) z[K:treble] (^G .A) z (=B | %76
 !>!^c2 B A2 E |[K:bass] D=ED ^CA,C) | (=E^CE B,A,G, | F,E,D, ^C,B,,A,, | %80
[K:bass] .[F,,D,]) z z .[G,,D,] z2 | .[=E,,D,] z z .[G,,D,] z2 | .[F,,D,] z z .[G,,D,] z2 | %83
 .[=E,,D,] z z .[G,,D,] z2 | .[^C,,A,,] z z .[C,,A,,] z2 | .[D,,A,,] z z .[F,,A,,] z2 | %86
 .[=E,,=B,,] z z .E,, z2 | .[A,,,A,,] z z z2 (A,, | .[D,,D,]) z z4 | .[D,,,D,,] z z4 | z6 | %91
 .[D,,D,] z z4 | .[G,,,G,,] z z .[G,,G,] z2 | z2 z .[G,,G,] z2 | z2 z .[^F,,^F,] z2 | %95
 .[A,,A,] z z .[D,,D,] z[K:treble] (A | d=e^f def | .=e) z .d .d z (A | d=e^f def | %99
 .=e)(e.d) .d z (d | .=b).b.b (bag | ^f=ed .^c) z .c | (^cd=e def | .e) z .d .d z2 | %104
[K:bass] (^A,,C,A,, C,A,,C, | ^A,,C,A,, C,A,,C,) | ([A,,,F,,]A,,[A,,,F,,] A,,[A,,,F,,]A,, | %107
 [A,,,F,,]A,,[A,,,F,,] A,,[A,,,F,,]A,,) | (_D,F,D, F,D,F, | _D,F,D, F,D,F,) | %110
!mf! ([F,,C,]F,[F,,C,] F,[F,,C,]F, | [F,,C,]F,[F,,C,] F,[F,,C,]F,) | ([C,C]3 =E3 | G,3 C2 =E | %114
 D=ED .C) z[K:treble] (E | .A) z (G .c) z (=e | !>!gdG) (GDG,) | (!>!^fcG) (^FCG,) | %118
 (!>!g=BG) (G=B,G, | A,3 =B,3 | .C) z z4 |[K:bass] z2 z z2 C- | C3 z z2 | z2 z z2 C- | C3 z z2 | %125
 z2 z z2 C- | C3 z z2 | z2 z z2 (([=E,,=E,] | .[F,,F,])) z z[K:treble] (A3 | .C) z (C F2 A | %130
 GAG .F) z[K:treble] (A | .d) z (c .f) z (a | !>!c'gc) (cGC) | (!>!=bfc) (=BFC) | (!>!c'=ec) c=EC | %135
 D3 .E z (E |[K:bass] .A,,) z z4 | z z z z2 F- | F3 z z2 | z2 z z2 F- | F3 z z2 | %141
[K:bass] z2 z z2 F,- | F,3 z z2 | z2 z z2 F,- | F,3 z2 F,- | F,3 z2 F,- | F,3 F,3 | %147
 (D,,2 =E,, D,,2 E,, | .F,,) z z4 | .[A,,,F,,A,,] z z4 | !>![B,,,F,,B,,]6- | [B,,,F,,B,,]6 | %152
!p! ([B,,,B,,]3 _D,3 | F,,3 B,,2 _D, | C,_D,C, .B,,) z (D, | ._G,) z (F, .B,) z (C | %156
 _D2 _A, G,2 B, | _A,B,A, G,=E,G, | F,3- F,2 E, | ._D,) z (D, C,3) |!mf! [B,,,F,,B,,]3 (_D3 | %161
 .F,) z (F, B,2 _D | C_DC .B,) z[K:treble] (D | _G=EF B_de | .f) z z[K:bass] .[B,,F,] z2 | %165
 z2 z .[B,,F,] z2 | z2 z .[B,,,F,,] z2 | z2 z .[B,,,F,,] z2 | z2 z .[B,,,F,,] z2 | %169
 z2 z .[B,,,F,,] z2 | z2 z .[A,,,F,,] z2 | z2 z .[B,,F,] z2 | z2 z .[A,,,F,,] z2 | %173
 z2 z .[B,,,F,,] z2 | z2 z .[G,,,C,,G,,] z2 | z2 z .[F,,,C,,F,,] z2 | .[B,,,F,,] z z4 | %177
 .[B,,,F,,] z z4 | .[A,,,F,,] z z4 | .[B,,,F,,] z z4 | .[=E,,,=E,,] z z4 | z2 z .[=E,,=E,] z2 | %182
 .[F,,,F,,] z2 .[F,,F,] z2 | z2 z .[B,,,B,,] z2 | !arpeggio!.[B,,F,_D] z z4 | %185
[K:treble]!<(! .B z (F Bc_d)!<)! |[K:bass] [F,,F,] z z4 | z6 | %188
!ff!!ff!!ff! !arpeggio!.[C,G,E] z z4 |[K:treble]!<(! .c(cG cde)!<)! | ([G,=B,]DG[K:treble] A=Bc | %191
 d=e^f ga=b) | (G3 =B3 | D3 G2 =B | dAD[K:bass] DA,D,) |[K:treble] ((!>![DG^c]3 .[D^Fd])) z2 | %196
 (F3 A3 | .C) z (C F2 _A | cGC)[K:bass] (CG,C,) |[K:treble] ((!>![CF=B]3 .[CEc])) z2 | (G3 [df]3 | %201
 [ce]3 [Bd]3 | [Ac]3 .[GB]) z ([FA] | [=EG]6) | (F3 [ce]3 | [Bd]3 [_Ac]3 | [GB]3 .[F_A]) z ([EG] | %207
 [DF]6) | .[DF_AB] z z[K:bass] .[E,B,] z z |[K:treble] .[EGB] z z[K:bass] .[E,B,] z z | %210
[K:treble] .[DF_AB] z z[K:bass] .[E,B,] z z |[K:treble] .[EGB] z z[K:bass] .[E,B,] z z | %212
[K:treble] .[DF_AB] z z[K:bass] .[E,B,] z z |[K:treble] .[EGB] z z[K:bass] .[E,B,] z z | %214
[K:treble] .[CEFA] z z[K:bass] .[C,F,C] z z |[K:treble] [B,DFB] z z[K:bass] .[B,,B,] z .[B,,B,] | %216
 .[E,,E,] z z[K:treble] (G3 | B,3 E2 G | !>!FGF .E) z[K:treble] (_A | .c) z (d .e) z (f | %220
 !>!g2 f e2 B | _ABA GEG) |[K:bass] .[E,,E,] z z .[E,E] z2 | z2 z .[E,,E,] z2 | .[D,,D,] z z (^F3 | %225
 .A,) z (A, D2 ^F | EFE .D) z[K:treble] (G | .B) z (^c .d) z (=e | ^f2 e d2 A |[K:bass] GAG ^FDF) | %230
 (A^FA EDC | B,^G,=G, ^F,E,D, |[K:bass] .[B,,G,]) z z .[C,G,] z2 | .[A,,G,] z z .[B,,G,] z2 | %234
 .[B,,G,] z z .[C,G,] z2 | .[A,,G,] z z .[B,,G,] z2 | .[^F,,D,] z z .[F,,D,] z2 | %237
 .[G,,D,] z z .[B,,D,] z2 | .[A,,=E,] z z .A,, z2 | .[D,,D,] z z z2 (D, | .[G,,G,]) z z4 | %241
!pp! .[G,,,G,,] z z4 | z6 | .[G,,G,] z z4 | .[C,,C,] z z .[C,C] z2 | z2 z .[C,C] z2 | %246
 z2 z .[=B,,=B,] z2 | .[D,D] z z .[G,,G,] z[K:treble] (d | ga=b gab | .a) z .g .g z (d | ga=b gab | %251
 .a)(a.g) .g z (g | .=e').e'.e' (e'd'c' | =bag .^f) z .f | (^fga ga=b | .a) z .g .g z2 | %256
[K:bass]!p! ^D,^F,D, F,D,F, | ^D,^F,D, F,D,F, | ([D,,B,,]D,[D,,B,,] D,[D,,B,,]D, | %259
 [D,,B,,]D,[D,,B,,] D,[D,,B,,]D,) | (_G,B,G, B,G,B, | _G,B,G, B,G,B,) | %262
!mf! ([B,,F,]B,[B,,F,] B,[B,,F,]B, | [B,,F,]B,[B,,F,] B,[B,,F,]B,) |[K:treble] ([F,F]3 A3 | %265
 C3 F2 A | GAG .F) z (A | .d) z (c .f) z (a | !>!c'gc) (cGC) | (!>!=bfc) (=BFC) | %270
 (!>!c'=ec) (c=EC | D3 =E3 | .F) z z4 |[K:bass] z2 z z2 F- | F3 z z2 | z2 z z2 F- | F3 z z2 | %277
 z2 z z2 F- | F3 z z2 | z z z z2 ([A,,A,] | .[B,,B,]) z z[K:treble] (d3 | .F) z (F B2 d | %282
 cdc .B) z[K:treble] (d | .g) z (f .b) z (d' | !>!f'c'f) (fcF) | (!>!=e'bf) (=eBF) | %286
 (!>!f'af) (fAF | G,3 .A,) z (A, | .B,) z z z2 B- | B3 z z2 | z2 z z2 B- | B3 z z2 | %292
[K:bass] z2 z z2 B,- | B,3 z z2 | z2 z z2 B,- | B,3 z2 B,- | B,3 z2 B,- | B,3 B,3 | %298
 (G,,2 A,, G,,2 A,, | .B,,) z z4 | .[D,,B,,D,] z z4 | !>![E,,B,,E,]6- | [E,,B,,E,]6 | %303
 .[B,,,B,,] z2 (D3 | F,3 B,2 D | CDC .B,) z[K:treble] (D | .G) z (F .B) z (c | d2 A G2 B | %308
 ABA G=EG | F3- F2 E | .D) z (D C3 | [B,,F,B,]3) (d3 | .F) z (F B2 d | cdc .B) z[K:treble] (d | %314
 g=ef bd'=e' | .f') z z z2 z |[K:bass] .[F,,F,] z z4 | .[B,,,B,,] z z z2 !fermata!z |] %318
V:4
 x6 | x6 | x6 | x6 | x6 | x6 | x6 | x6 | x6 | x6 | x6 | x6 | x6 | x6 | x6 |[K:bass] x6 | x6 | x6 | %18
 x6 | x6 | x6 | x6 | x6 | x6 | x6 | x6 | x6 | x6 | x6 | x3[K:treble] x3 | x6 | x6 | x6 | x6 | %34
[K:bass] x6 |[K:treble] x6 | x6 | x6 | x6 |!8va(! x6 | x6 | x6 | x6 | x6 | x6 | x6 | x6 | %47
 x6!8va)! | x6 | x6 | x6 | x6 | x6 | x6 |!8va(! x6 | x6!8va)! | x6 | x6 | x6 | x6 | x6 | x6 | x6 | %63
 x6 | x6 | x6 | !>!G3- G x2 | x6 | x6 | x6 | x6 | x6 | x6 | x6 | x6 | x6 | x6 | x6 | x6 | x6 | %80
[K:bass] x6 | x6 | x6 | x6 | x6 | x6 | x6 | x6 | x6 | x6 | x6 |[K:treble] x6 | x6 | x6 | x6 | x6 | %96
 x6 | x6 | x6 | x6 | x6 | x6 | x6 | x6 |[K:bass] x6 | x6 | x6 | x6 | x6 | x6 | x6 | x6 | %112
[K:treble]!8va(! x6 | x6 | x6 | x6 | x6 | x6 | x6 | x6 | x!8va)! x5 | x6 | x6 | x6 | x6 | x6 | x6 | %127
 x6 | x!8va(! x5 | x6 | x6 | x6 | x6 | x6 | x6 | x6 | x6 | x!8va)! x5 | x6 | x6 | x6 | x6 | x6 | %143
 x6 | x6 | x6 | x6 |[K:bass] x6 | x6 |[K:treble] x6 |!8va(! x6 | x6!8va)! | x6 | x6 | x6 | x6 | %156
 x6 | x6 | x6 | x6 | x6 | x6 | x6 | x6 | x6 | x6 | x6 |[K:bass] x6 | x6 | x6 | x6 | x6 | x6 | x6 | %174
 x6 | x6 | x6 | x6 | x6 | x6 | x6 | x3[K:treble] x3 | x6 | x6 | x6 | x6 | x6 | x6 | x6 | x6 | x6 | %191
!8va(! x6 | x6 | x6 | x6 | x6 | x6 | x6 | x6 | x6!8va)! | x6 | x6 |!8va(! x6 | x6!8va)! | x6 | %205
!8va(! x6 | x6 | x6!8va)! | x6 | x6 | x6 | x6 | x6 | x6 | x6 | x6 | x6 | x6 | !>!c3- c x2 | x6 | %220
 x6 | x6 | x6 | x6 | x6 | x6 | x6 | x6 | x6 | x6 | x6 | x6 | x6 | x6 | x6 | x6 | x6 | x6 | x6 | %239
 x6 | x6 | x6 | x6 |[K:treble] x6 | x6 | x6 | x6 | x5!8va(! x | x6 | x6 | x6 | x6 | x6 | x6 | x6 | %255
 x4!8va)! x2 | x6 | x6 | x6 | x6 | x6 | x6 | x6 | x6 |[K:treble]!8va(! x6 | x6 | x6 | x6 | x6 | %269
 x6 | x6 | x6 | x!8va)! x5 | x6 | x6 | x6 | x6 | x6 | x6 | x6 | x!8va(! x5 | x6 | x6 | x6 | x6 | %285
 x6 | x6 | x6 | x!8va)! x5 | x6 | x6 | x6 | x6 | x6 | x6 | x6 | x6 | x6 | x6 | x6 | x6 | x6 | x6 | %303
 x6 | x6 | x6 | x6 | x6 | x6 | x6 | x6 | x6 | x6 | x5!8va(! x | x6 | x!8va)! x5 | x6 | x6 |] %318
V:5
 x6 | x6 | x6 | x6 | x6 | x6 | x6 | x6 | x6 | x6 | x5[K:treble] x | x6 | x3[K:bass] x3 | x6 | x6 | %15
 x6 | x6 | x6 | x6 | x6 | x6 | x6 | x6 | x6 | x6 | x6 | x6 | x6 | x6 | x6 | x6 | x6 | x6 | %33
[K:treble] x6 |[K:bass] x6 | x6 | x6 |[K:treble] x6 |[K:bass] x3[K:treble] x3 | x6 | x6 | x6 | %42
 x3[K:bass] x3 |[K:treble] x6 | x6 | x6 | x3[K:bass] x3 |[K:treble] x6 | x6 | x6 | x6 | x6 | x6 | %53
 x6 | x6 | x6 |[K:bass] x6 | x6 | x6 | x6 | x6 | x6 | x6 | x6 | x6 | x6 | %66
 !>!E,3- E, x[K:treble] x | x6 | x6 | x6 |[K:bass] x6 | x6 | x6 | x6 | x6 | %75
[K:treble] x2[K:treble] x4 | x6 |[K:bass] x6 | x6 | x6 |[K:bass] x6 | x6 | x6 | x6 | x6 | x6 | x6 | %87
 x6 | x6 | x6 | x6 | x6 | x6 | x6 | x6 | x5[K:treble] x | x6 | x6 | x6 | x6 | x6 | x6 | x6 | x6 | %104
[K:bass] x6 | x6 | x6 | x6 | x6 | x6 | x6 | x6 | x6 | x6 | x5[K:treble] x | x6 | x6 | x6 | x6 | %119
 x6 | x6 |[K:bass] x5 (=E, | F,2 .C,) x3 | x5 (=E, | F,2 .C,) x3 | x5 (=E, | F,2 .C,) x3 | x6 | %128
 x3[K:treble] x3 | x6 | x5[K:treble] x | x6 | x6 | x6 | x6 | x6 |[K:bass] x6 | x5 (A, | %138
 B,2 .F,) x3 | x5 (A, | B,2 .F,) x3 |[K:bass] x5 (A,, | B,,2 .F,,) x3 | x5 (A,, | %144
 B,,2 .F,,3) (A,, | B,,2 .F,,3) (A,, | B,,2 F,, B,,2 .F,,) | x6 | x6 | x6 | x6 | x6 | x6 | x6 | %154
 x6 | x6 | x6 | x6 | x6 | x6 | x6 | x6 | x5[K:treble] x | x6 | x3[K:bass] x3 | x6 | x6 | x6 | x6 | %169
 x6 | x6 | x6 | x6 | x6 | x6 | x6 | x6 | x6 | x6 | x6 | x6 | x6 | x6 | x6 | x6 |[K:treble] x6 | %186
[K:bass] x6 | x6 | x6 |[K:treble] x6 | x3[K:treble] x3 | x6 | x6 | x6 | x3[K:bass] x3 | %195
[K:treble] x6 | x6 | x6 | x3[K:bass] x3 |[K:treble] x6 | x6 | x6 | x6 | x6 | x6 | x6 | x6 | x6 | %208
 x3[K:bass] x3 |[K:treble] x3[K:bass] x3 |[K:treble] x3[K:bass] x3 |[K:treble] x3[K:bass] x3 | %212
[K:treble] x3[K:bass] x3 |[K:treble] x3[K:bass] x3 |[K:treble] x3[K:bass] x3 | %215
[K:treble] x3[K:bass] x3 | x3[K:treble] x3 | x6 | !>!_A,3- A, x[K:treble] x | x6 | x6 | x6 | %222
[K:bass] x6 | x6 | x6 | x6 | x5[K:treble] x | x6 | x6 |[K:bass] x6 | x6 | x6 |[K:bass] x6 | x6 | %234
 x6 | x6 | x6 | x6 | x6 | x6 | x6 | x6 | x6 | x6 | x6 | x6 | x6 | x5[K:treble] x | x6 | x6 | x6 | %251
 x6 | x6 | x6 | x6 | x6 |[K:bass] x6 | x6 | x6 | x6 | x6 | x6 | x6 | x6 |[K:treble] x6 | x6 | x6 | %267
 x6 | x6 | x6 | x6 | x6 | x6 |[K:bass] x5 (A, | B,2 .F,) x3 | x5 (A, | B,2 .F,) x3 | x5 (A, | %278
 B,2 .F,) x3 | x6 | x3[K:treble] x3 | x6 | x5[K:treble] x | x6 | x6 | x6 | x6 | x6 | x5 (D | %289
 E2 .B,) x3 | x5 (D | E2 .B,) x3 |[K:bass] x5 (D, | E,2 .B,,) x3 | x5 (D, | E,2 .B,,3) (D, | %296
 E,2 .B,,3) (D, | E,2 B,, E,2 .B,,) | x6 | x6 | x6 | x6 | x6 | x6 | x6 | x5[K:treble] x | x6 | x6 | %308
 x6 | x6 | x6 | x6 | x6 | x5[K:treble] x | x6 | x6 |[K:bass] x6 | x6 |] %318

